;FLAVOR:UltiGCode
;TIME:3109
;MATERIAL:6058
;MATERIAL2:0
;NOZZLE_DIAMETER:0.4
;MINX:10.95
;MINY:20.45
;MINZ:0.3
;MAXX:109.05
;MAXY:99.55
;MAXZ:6
;Generated with Cura_SteamEngine 4.1.0
M82 ;absolute extrusion mode

G92 E0
G92 E0
G10
;LAYER_COUNT:39
;LAYER:0
M107
G0 F3600 X15.515 Y22.43 Z0.3
;TYPE:SKIRT
G11
G1 F1800 X15.916 Y22.171 E0.05728
G1 X16.878 Y21.641 E0.18908
G1 X17.322 Y21.436 E0.24777
G1 X18.307 Y21.06 E0.37429
G1 X18.79 Y20.912 E0.43491
G1 X19.644 Y20.702 E0.54044
G1 X20.121 Y20.613 E0.59867
G1 X21.085 Y20.495 E0.71521
G1 X21.602 Y20.464 E0.77736
G1 X22.069 Y20.45 E0.83343
G1 X97.931 Y20.45 E9.93687
G1 X98.398 Y20.464 E9.99293
G1 X98.915 Y20.495 E10.05509
G1 X99.876 Y20.613 E10.17127
G1 X100.386 Y20.708 E10.23352
G1 X101.308 Y20.938 E10.34756
G1 X101.786 Y21.089 E10.40771
G1 X102.778 Y21.479 E10.53562
G1 X103.223 Y21.69 E10.59472
G1 X104.218 Y22.255 E10.73202
G1 X104.638 Y22.536 E10.79266
G1 X105.513 Y23.216 E10.92564
G1 X105.827 Y23.498 E10.97629
G1 X106.387 Y24.055 E11.07107
G1 X106.72 Y24.446 E11.1327
G1 X106.992 Y24.788 E11.18514
G1 X107.451 Y25.43 E11.27984
G1 X107.786 Y26.003 E11.35949
G1 X107.996 Y26.401 E11.41349
G1 X108.328 Y27.117 E11.5082
G1 X108.549 Y27.736 E11.58707
G1 X108.661 Y28.098 E11.63254
G1 X108.855 Y28.863 E11.72725
G1 X108.969 Y29.61 E11.81793
G1 X109.01 Y30.011 E11.8663
G1 X109.05 Y30.804 E11.96158
G1 X109.05 Y89.194 E18.96838
G1 X109.01 Y89.985 E19.06342
G1 X108.969 Y90.387 E19.11191
G1 X108.849 Y91.168 E19.20673
G1 X108.653 Y91.925 E19.30056
G1 X108.531 Y92.315 E19.3496
G1 X108.258 Y93.055 E19.44425
G1 X107.91 Y93.765 E19.53914
G1 X107.694 Y94.155 E19.59263
G1 X107.277 Y94.826 E19.68744
G1 X106.986 Y95.218 E19.74602
G1 X106.731 Y95.54 E19.79531
G1 X106.21 Y96.134 E19.89012
G1 X105.831 Y96.498 E19.95318
G1 X105.494 Y96.801 E20.00756
G1 X104.881 Y97.299 E20.10234
G1 X104.516 Y97.55 E20.1555
G1 X104.091 Y97.825 E20.21624
G1 X103.179 Y98.332 E20.34146
G1 X102.761 Y98.529 E20.39691
G1 X101.786 Y98.911 E20.52257
G1 X101.308 Y99.062 E20.58272
G1 X100.386 Y99.292 E20.69675
G1 X99.876 Y99.387 E20.759
G1 X98.915 Y99.505 E20.87519
G1 X98.398 Y99.536 E20.93734
G1 X97.931 Y99.55 E20.99341
G1 X22.069 Y99.55 E30.09685
G1 X21.602 Y99.536 E30.15291
G1 X21.085 Y99.505 E30.21506
G1 X20.124 Y99.387 E30.33125
G1 X19.614 Y99.292 E30.3935
G1 X18.692 Y99.062 E30.50753
G1 X18.214 Y98.911 E30.56769
G1 X17.222 Y98.521 E30.6956
G1 X16.777 Y98.31 E30.75469
G1 X15.782 Y97.745 E30.892
G1 X15.362 Y97.464 E30.95264
G1 X14.486 Y96.783 E31.08579
G1 X14.171 Y96.5 E31.1366
G1 X13.611 Y95.943 E31.23139
G1 X13.225 Y95.484 E31.30335
G1 X12.939 Y95.116 E31.35928
G1 X12.487 Y94.469 E31.45399
G1 X12.194 Y93.959 E31.52457
G1 X11.999 Y93.588 E31.57487
G1 X11.667 Y92.871 E31.66968
G1 X11.423 Y92.17 E31.75875
G1 X11.308 Y91.781 E31.80743
G1 X11.123 Y91.014 E31.90211
G1 X11.028 Y90.358 E31.98165
G1 X10.99 Y89.984 E32.02676
G1 X10.95 Y89.196 E32.12144
G1 X10.95 Y30.806 E39.12824
G1 X10.99 Y30.017 E39.22305
G1 X11.031 Y29.614 E39.27165
G1 X11.151 Y28.833 E39.36647
G1 X11.347 Y28.074 E39.46054
G1 X11.469 Y27.684 E39.50958
G1 X11.742 Y26.944 E39.60423
G1 X12.094 Y26.226 E39.70019
G1 X12.31 Y25.837 E39.75358
G1 X12.728 Y25.167 E39.84834
G1 X13.016 Y24.779 E39.90633
G1 X13.272 Y24.456 E39.95579
G1 X13.793 Y23.863 E40.05051
G1 X14.228 Y23.449 E40.12257
G1 X14.59 Y23.13 E40.18047
G1 X15.515 Y22.43 E40.31967
G0 F3600 X15.732 Y22.766
G1 F1800 X16.133 Y22.507 E40.37696
G1 X17.046 Y22.005 E40.50199
G1 X17.49 Y21.8 E40.56067
G1 X18.424 Y21.443 E40.68066
G1 X18.907 Y21.295 E40.74128
G1 X19.718 Y21.096 E40.84149
G1 X20.195 Y21.007 E40.89971
G1 X21.109 Y20.894 E41.01023
G1 X21.626 Y20.863 E41.07238
G1 X22.069 Y20.85 E41.12556
G1 X97.931 Y20.85 E50.229
G1 X98.374 Y20.863 E50.28219
G1 X98.891 Y20.894 E50.34434
G1 X99.803 Y21.006 E50.4546
G1 X100.313 Y21.101 E50.51685
G1 X101.187 Y21.32 E50.62497
G1 X101.665 Y21.471 E50.68513
G1 X102.606 Y21.841 E50.80646
G1 X103.051 Y22.052 E50.86556
G1 X103.996 Y22.588 E50.99593
G1 X104.416 Y22.869 E51.05657
G1 X105.246 Y23.513 E51.18264
G1 X105.56 Y23.795 E51.23328
G1 X106.104 Y24.338 E51.32552
G1 X106.407 Y24.695 E51.38171
G1 X106.679 Y25.037 E51.43415
G1 X107.125 Y25.663 E51.52638
G1 X107.432 Y26.19 E51.59957
G1 X107.642 Y26.588 E51.65357
G1 X107.965 Y27.286 E51.74586
G1 X108.166 Y27.854 E51.81817
G1 X108.278 Y28.216 E51.86364
G1 X108.467 Y28.961 E51.95587
G1 X108.571 Y29.65 E52.03949
G1 X108.612 Y30.051 E52.08786
G1 X108.65 Y30.804 E52.17833
G1 X108.65 Y89.194 E59.18513
G1 X108.612 Y89.945 E59.27537
G1 X108.571 Y90.347 E59.32386
G1 X108.453 Y91.107 E59.41615
G1 X108.272 Y91.805 E59.50268
G1 X108.15 Y92.195 E59.55172
G1 X107.882 Y92.916 E59.64402
G1 X107.56 Y93.571 E59.7316
G1 X107.344 Y93.961 E59.7851
G1 X106.937 Y94.614 E59.87744
G1 X106.672 Y94.97 E59.93069
G1 X106.417 Y95.292 E59.97998
G1 X105.909 Y95.869 E60.07223
G1 X105.564 Y96.201 E60.12969
G1 X105.227 Y96.504 E60.18407
G1 X104.629 Y96.988 E60.27639
G1 X104.299 Y97.214 E60.32439
G1 X103.874 Y97.489 E60.38513
G1 X103.009 Y97.97 E60.5039
G1 X102.591 Y98.167 E60.55935
G1 X101.665 Y98.529 E60.67866
G1 X101.187 Y98.68 E60.73882
G1 X100.313 Y98.899 E60.84694
G1 X99.803 Y98.994 E60.90919
G1 X98.891 Y99.106 E61.01945
G1 X98.374 Y99.137 E61.08161
G1 X97.931 Y99.15 E61.13479
G1 X22.069 Y99.15 E70.23823
G1 X21.626 Y99.137 E70.29141
G1 X21.109 Y99.106 E70.35356
G1 X20.197 Y98.994 E70.46382
G1 X19.687 Y98.899 E70.52608
G1 X18.813 Y98.68 E70.6342
G1 X18.335 Y98.529 E70.69435
G1 X17.394 Y98.159 E70.81569
G1 X16.949 Y97.948 E70.87479
G1 X16.004 Y97.412 E71.00516
G1 X15.584 Y97.131 E71.0658
G1 X14.753 Y96.486 E71.19203
G1 X14.438 Y96.203 E71.24285
G1 X13.894 Y95.66 E71.33508
G1 X13.541 Y95.239 E71.40101
G1 X13.255 Y94.871 E71.45694
G1 X12.815 Y94.24 E71.54925
G1 X12.548 Y93.773 E71.6138
G1 X12.353 Y93.402 E71.6641
G1 X12.031 Y92.703 E71.75645
G1 X11.807 Y92.057 E71.8385
G1 X11.692 Y91.668 E71.88718
G1 X11.512 Y90.92 E71.9795
G1 X11.426 Y90.318 E72.05247
G1 X11.388 Y89.944 E72.09758
G1 X11.35 Y89.196 E72.18746
G1 X11.35 Y30.806 E79.19426
G1 X11.388 Y30.057 E79.28425
G1 X11.429 Y29.654 E79.33286
G1 X11.547 Y28.894 E79.42516
G1 X11.728 Y28.194 E79.51192
G1 X11.85 Y27.804 E79.56096
G1 X12.118 Y27.083 E79.65326
G1 X12.443 Y26.421 E79.74176
G1 X12.659 Y26.032 E79.79515
G1 X13.067 Y25.38 E79.88745
G1 X13.33 Y25.028 E79.94017
G1 X13.586 Y24.705 E79.98963
G1 X14.094 Y24.127 E80.08197
G1 X14.493 Y23.749 E80.14793
G1 X14.855 Y23.43 E80.20583
G1 X15.732 Y22.766 E80.33783
G0 F3600 X15.949 Y23.102
G1 F1800 X16.35 Y22.843 E80.39511
G1 X17.214 Y22.368 E80.51343
G1 X17.658 Y22.163 E80.57211
G1 X18.541 Y21.825 E80.68557
G1 X19.024 Y21.677 E80.74619
G1 X19.791 Y21.489 E80.84096
G1 X20.268 Y21.4 E80.89918
G1 X21.133 Y21.294 E81.00376
G1 X21.65 Y21.263 E81.06591
G1 X22.069 Y21.25 E81.11622
G1 X97.931 Y21.25 E90.21966
G1 X98.35 Y21.263 E90.26996
G1 X98.867 Y21.294 E90.33211
G1 X99.73 Y21.399 E90.43643
G1 X100.24 Y21.494 E90.49869
G1 X101.067 Y21.701 E90.60099
G1 X101.545 Y21.852 E90.66114
G1 X102.435 Y22.202 E90.7759
G1 X102.88 Y22.413 E90.835
G1 X103.773 Y22.92 E90.95823
G1 X104.193 Y23.201 E91.01887
G1 X104.978 Y23.811 E91.13817
G1 X105.292 Y24.093 E91.18881
G1 X105.821 Y24.622 E91.27859
G1 X106.094 Y24.944 E91.32924
G1 X106.366 Y25.286 E91.38168
G1 X106.799 Y25.895 E91.47135
G1 X107.078 Y26.376 E91.53808
G1 X107.288 Y26.774 E91.59208
G1 X107.601 Y27.454 E91.68191
G1 X107.784 Y27.972 E91.74783
G1 X107.896 Y28.334 E91.7933
G1 X108.079 Y29.059 E91.88303
G1 X108.173 Y29.691 E91.95971
G1 X108.214 Y30.092 E92.00808
G1 X108.25 Y30.804 E92.09363
G1 X108.25 Y89.194 E99.10043
G1 X108.214 Y89.904 E99.18574
G1 X108.173 Y90.306 E99.23423
G1 X108.057 Y91.045 E99.32399
G1 X107.89 Y91.686 E99.40348
G1 X107.768 Y92.076 E99.45252
G1 X107.507 Y92.777 E99.54228
G1 X107.211 Y93.377 E99.62256
G1 X106.995 Y93.767 E99.67606
G1 X106.598 Y94.402 E99.76593
G1 X106.359 Y94.722 E99.81386
G1 X106.104 Y95.044 E99.86315
G1 X105.609 Y95.605 E99.95293
G1 X105.296 Y95.903 E100.00479
G1 X104.959 Y96.206 E100.05917
G1 X104.082 Y96.878 E100.19175
G1 X103.657 Y97.153 E100.2525
G1 X102.838 Y97.608 E100.36492
G1 X102.42 Y97.805 E100.42038
G1 X101.545 Y98.148 E100.53316
G1 X101.067 Y98.299 E100.59331
G1 X100.24 Y98.506 E100.69561
G1 X99.73 Y98.601 E100.75786
G1 X98.867 Y98.706 E100.86219
G1 X98.35 Y98.737 E100.92434
G1 X97.931 Y98.75 E100.97464
G1 X22.069 Y98.75 E110.07808
G1 X21.65 Y98.737 E110.12839
G1 X21.133 Y98.706 E110.19054
G1 X20.27 Y98.601 E110.29486
G1 X19.76 Y98.506 E110.35712
G1 X18.933 Y98.299 E110.45942
G1 X18.455 Y98.148 E110.51957
G1 X17.565 Y97.798 E110.63433
G1 X17.12 Y97.587 E110.69343
G1 X16.227 Y97.08 E110.81666
G1 X15.807 Y96.799 E110.8773
G1 X15.021 Y96.188 E110.99676
G1 X14.706 Y95.905 E111.04758
G1 X14.177 Y95.376 E111.13735
G1 X13.857 Y94.994 E111.19715
G1 X13.571 Y94.626 E111.25308
G1 X13.144 Y94.011 E111.34292
G1 X12.902 Y93.587 E111.40151
G1 X12.707 Y93.216 E111.4518
G1 X12.395 Y92.536 E111.54158
G1 X12.19 Y91.944 E111.61676
G1 X12.075 Y91.555 E111.66544
G1 X11.902 Y90.827 E111.75523
G1 X11.824 Y90.278 E111.82177
G1 X11.786 Y89.904 E111.86688
G1 X11.75 Y89.196 E111.95195
G1 X11.75 Y30.806 E118.95875
G1 X11.786 Y30.097 E119.04394
G1 X11.827 Y29.694 E119.09255
G1 X11.942 Y28.955 E119.1823
G1 X12.11 Y28.313 E119.26193
G1 X12.232 Y27.923 E119.31097
G1 X12.493 Y27.222 E119.40073
G1 X12.793 Y26.615 E119.48198
G1 X13.009 Y26.226 E119.53538
G1 X13.407 Y25.592 E119.6252
G1 X13.643 Y25.276 E119.67253
G1 X13.899 Y24.953 E119.72199
G1 X14.394 Y24.392 E119.81177
G1 X14.757 Y24.049 E119.8717
G1 X15.119 Y23.73 E119.9296
G1 X15.949 Y23.102 E120.0545
G0 F3600 X16.166 Y23.438
G1 F1800 X16.567 Y23.179 E120.11178
G1 X17.381 Y22.731 E120.22328
G1 X17.825 Y22.526 E120.28196
G1 X18.658 Y22.208 E120.38896
G1 X19.141 Y22.06 E120.44958
G1 X19.864 Y21.882 E120.53893
G1 X20.341 Y21.793 E120.59716
G1 X21.157 Y21.693 E120.69581
G1 X21.674 Y21.662 E120.75796
G1 X22.069 Y21.65 E120.80538
G1 X97.931 Y21.65 E129.90882
G1 X98.326 Y21.662 E129.95624
G1 X98.843 Y21.693 E130.0184
G1 X99.657 Y21.793 E130.11681
G1 X100.167 Y21.888 E130.17906
G1 X100.946 Y22.083 E130.27543
G1 X101.424 Y22.234 E130.33558
G1 X102.264 Y22.563 E130.44384
G1 X102.709 Y22.774 E130.50294
G1 X103.551 Y23.253 E130.61918
G1 X103.971 Y23.534 E130.67982
G1 X104.711 Y24.109 E130.79228
G1 X105.025 Y24.391 E130.84292
G1 X105.538 Y24.905 E130.93007
G1 X105.781 Y25.193 E130.97529
G1 X106.053 Y25.535 E131.02772
G1 X106.473 Y26.127 E131.11482
G1 X106.724 Y26.563 E131.1752
G1 X106.934 Y26.961 E131.2292
G1 X107.237 Y27.621 E131.31634
G1 X107.402 Y28.09 E131.376
G1 X107.514 Y28.452 E131.42148
G1 X107.69 Y29.157 E131.50867
G1 X107.775 Y29.732 E131.57842
G1 X107.816 Y30.133 E131.62679
G1 X107.85 Y30.804 E131.70742
G1 X107.85 Y89.194 E138.71422
G1 X107.816 Y89.864 E138.79472
G1 X107.775 Y90.266 E138.84321
G1 X107.662 Y90.983 E138.93031
G1 X107.508 Y91.566 E139.00267
G1 X107.386 Y91.956 E139.05171
G1 X107.131 Y92.637 E139.13897
G1 X106.861 Y93.184 E139.21217
G1 X106.645 Y93.574 E139.26567
G1 X106.045 Y94.473 E139.39537
G1 X105.79 Y94.795 E139.44466
G1 X105.308 Y95.339 E139.53188
G1 X105.029 Y95.606 E139.57822
G1 X104.692 Y95.909 E139.6326
G1 X103.864 Y96.542 E139.75767
G1 X103.439 Y96.817 E139.81841
G1 X102.668 Y97.246 E139.92429
G1 X102.25 Y97.443 E139.97974
G1 X101.424 Y97.766 E140.08617
G1 X100.946 Y97.917 E140.14633
G1 X100.167 Y98.112 E140.24269
G1 X99.657 Y98.207 E140.30494
G1 X98.843 Y98.307 E140.40336
G1 X98.326 Y98.338 E140.46551
G1 X97.931 Y98.35 E140.51293
G1 X22.069 Y98.35 E149.61637
G1 X21.674 Y98.338 E149.66379
G1 X21.157 Y98.307 E149.72594
G1 X20.343 Y98.207 E149.82436
G1 X19.833 Y98.112 E149.88661
G1 X19.054 Y97.917 E149.98298
G1 X18.576 Y97.766 E150.04313
G1 X17.736 Y97.437 E150.15138
G1 X17.291 Y97.226 E150.21048
G1 X16.449 Y96.747 E150.32673
G1 X16.029 Y96.466 E150.38737
G1 X15.288 Y95.891 E150.49992
G1 X14.973 Y95.608 E150.55073
G1 X14.46 Y95.093 E150.63796
G1 X14.173 Y94.748 E150.69182
G1 X13.887 Y94.38 E150.74774
G1 X13.473 Y93.783 E150.83492
G1 X13.256 Y93.401 E150.88764
G1 X13.061 Y93.03 E150.93794
G1 X12.759 Y92.369 E151.02515
G1 X12.574 Y91.83 E151.09353
G1 X12.459 Y91.441 E151.14221
G1 X12.292 Y90.734 E151.22938
G1 X12.222 Y90.237 E151.28961
G1 X12.184 Y89.863 E151.33472
G1 X12.15 Y89.196 E151.41487
G1 X12.15 Y30.806 E158.42167
G1 X12.184 Y30.138 E158.50193
G1 X12.225 Y29.735 E158.55054
G1 X12.338 Y29.017 E158.63776
G1 X12.492 Y28.433 E158.71023
G1 X12.614 Y28.043 E158.75927
G1 X12.869 Y27.362 E158.84653
G1 X13.143 Y26.809 E158.92059
G1 X13.359 Y26.42 E158.97399
G1 X13.957 Y25.524 E159.10325
G1 X14.213 Y25.201 E159.15271
G1 X14.694 Y24.658 E159.23976
G1 X15.021 Y24.349 E159.29375
G1 X15.383 Y24.03 E159.35165
G1 X16.166 Y23.438 E159.46944
G0 F3600 X16.383 Y23.774
G1 F1800 X16.784 Y23.515 E159.52672
G1 X17.549 Y23.094 E159.63151
G1 X17.993 Y22.889 E159.69019
G1 X18.776 Y22.59 E159.79077
G1 X19.259 Y22.442 E159.85139
G1 X19.938 Y22.275 E159.9353
G1 X20.415 Y22.186 E159.99353
G1 X21.181 Y22.092 E160.08613
G1 X21.698 Y22.061 E160.14829
G1 X22.069 Y22.05 E160.19283
G1 X97.931 Y22.05 E169.29627
G1 X98.302 Y22.061 E169.34081
G1 X98.819 Y22.092 E169.40296
G1 X99.583 Y22.186 E169.49533
G1 X100.093 Y22.281 E169.55758
G1 X100.826 Y22.464 E169.64824
G1 X101.304 Y22.615 E169.70839
G1 X102.092 Y22.925 E169.81001
G1 X102.537 Y23.136 E169.86911
G1 X103.329 Y23.585 E169.97836
G1 X103.749 Y23.866 E170.039
G1 X104.444 Y24.406 E170.14461
G1 X104.758 Y24.688 E170.19526
G1 X105.467 Y25.442 E170.31946
G1 X105.739 Y25.784 E170.37189
G1 X106.146 Y26.359 E170.45643
G1 X106.371 Y26.75 E170.51056
G1 X106.581 Y27.148 E170.56456
G1 X106.873 Y27.788 E170.64898
G1 X107.02 Y28.208 E170.70238
G1 X107.132 Y28.57 E170.74785
G1 X107.302 Y29.254 E170.83243
G1 X107.377 Y29.772 E170.89524
G1 X107.418 Y30.173 E170.94361
G1 X107.45 Y30.804 E171.01942
G1 X107.45 Y89.194 E178.02622
G1 X107.418 Y89.823 E178.1018
G1 X107.377 Y90.225 E178.15029
G1 X107.266 Y90.92 E178.23475
G1 X107.126 Y91.447 E178.30018
G1 X107.004 Y91.837 E178.34922
G1 X106.756 Y92.496 E178.43371
G1 X106.511 Y92.99 E178.49988
G1 X106.295 Y93.38 E178.55338
G1 X105.731 Y94.225 E178.67529
G1 X105.476 Y94.547 E178.72458
G1 X104.761 Y95.308 E178.84989
G1 X104.424 Y95.611 E178.90427
G1 X103.647 Y96.206 E179.02171
G1 X103.222 Y96.481 E179.08245
G1 X102.497 Y96.884 E179.18199
G1 X102.079 Y97.081 E179.23744
G1 X101.304 Y97.385 E179.33734
G1 X100.826 Y97.536 E179.39749
G1 X100.093 Y97.719 E179.48815
G1 X99.583 Y97.814 E179.55041
G1 X98.819 Y97.908 E179.64278
G1 X98.302 Y97.939 E179.70493
G1 X97.931 Y97.95 E179.74947
G1 X22.069 Y97.95 E188.85291
G1 X21.698 Y97.939 E188.89745
G1 X21.181 Y97.908 E188.9596
G1 X20.417 Y97.814 E189.05197
G1 X19.907 Y97.719 E189.11422
G1 X19.174 Y97.536 E189.20488
G1 X18.696 Y97.385 E189.26504
G1 X17.908 Y97.075 E189.36665
G1 X17.463 Y96.864 E189.42575
G1 X16.671 Y96.415 E189.535
G1 X16.251 Y96.134 E189.59564
G1 X15.555 Y95.593 E189.70142
G1 X15.24 Y95.31 E189.75224
G1 X14.744 Y94.811 E189.83667
G1 X14.489 Y94.503 E189.88465
G1 X14.203 Y94.135 E189.94058
G1 X13.803 Y93.555 E190.02513
G1 X13.61 Y93.215 E190.07204
G1 X13.415 Y92.844 E190.12234
G1 X13.123 Y92.203 E190.20686
G1 X12.957 Y91.717 E190.26849
G1 X12.842 Y91.328 E190.31717
G1 X12.681 Y90.642 E190.40172
G1 X12.62 Y90.197 E190.45562
G1 X12.582 Y89.823 E190.50073
G1 X12.55 Y89.196 E190.57607
G1 X12.55 Y30.806 E197.58287
G1 X12.582 Y30.178 E197.65833
G1 X12.623 Y29.775 E197.70694
G1 X12.734 Y29.08 E197.7914
G1 X12.874 Y28.552 E197.85694
G1 X12.996 Y28.162 E197.90598
G1 X13.244 Y27.503 E197.99048
G1 X13.493 Y27.003 E198.0575
G1 X13.709 Y26.614 E198.1109
G1 X14.27 Y25.773 E198.23221
G1 X14.526 Y25.45 E198.28167
G1 X14.994 Y24.924 E198.36616
G1 X15.286 Y24.649 E198.41429
G1 X15.648 Y24.33 E198.47219
G1 X16.383 Y23.774 E198.58278
G0 F3600 X16.6 Y24.11
G1 F1800 X17.001 Y23.851 E198.64007
G1 X17.717 Y23.457 E198.73814
G1 X18.161 Y23.252 E198.79682
G1 X18.893 Y22.972 E198.89087
G1 X19.376 Y22.824 E198.95149
G1 X20.011 Y22.668 E199.02995
G1 X20.488 Y22.579 E199.08818
G1 X21.205 Y22.491 E199.17487
G1 X21.722 Y22.46 E199.23702
